X:1
T:Off She Goes [1]
M:6/8
L:1/8
S:Button &amp; Whitakers Selection of Dances, Reels, Waltzes No. 1 (undated, early 19th century)
Z:AK/Fiddlers Companion
K:D
F2A G2B|ABc d3|F2A G2B|AGF E3|F2A G2B|ABc d3|gaf g2f|edc d3:|
|:faf d2f|gbg e2g|faf d2f|gec d3|faf d2f|ege c2A|B2c d2B|gec d3:|
